editor/icons/GridMinimap.svg

<svg height="16" viewBox="0 0 16 16" width="16" xmlns="http://www.w3.org/2000/svg"><path d="m14 2.1992188v2.6152343l-2.625 1.3125v-2.6152343zm-12 4.0644531 2.625 1.3125v2.5507811l-2.625-1.3124999zm12 0v2.5507812l-2.625 1.3124999v-2.5507811zm-8 1.4550781h4v2.640625h-4zm-4 2.560547 2.625 1.3125v2.521484l-2.625-1.3125zm12 0v2.521484l-2.625 1.3125v-2.521484zm-8 1.455078h4v2.640625h-4zm1.7014535-8.109375h2.2985465v2.734375h-4.15625s-.7487346.647119-.8746377.640625c-.1310411-.0067594-1.5097373-1.4558594-1.5097373-1.4558594l-1.459375-.7296875v-2.6152343l.068419.034223s.026411-.4573464.062111-.6760553c.0346282-.2121439.1970747-.59225724.1970747-.59225724l-1.0483078-.52372301c-.0795772-.04012218-.1668141-.06276382-.2558594-.06640625-.35427845-.01325803-.64865004.27047362-.6484375.625v12c.00021484.236623.13402736.45284.34570312.558594l3.99999998 2c.086686.043505.1823067.06624.2792969.066406h6c.09699-.000166.192611-.0229.279297-.06641l4-2c.211676-.10575.345488-.321967.345703-.55859v-12c-.000468-.46423753-.488958-.76598317-.904297-.55859375l-3.869141 1.93359375h-2.9709527s.033448.4166167.015891.625c-.029188.3464401-.1950466.625-.1950468.625z" fill="#e0e0e0"/><path d="m5 6s-2.21875-2.1616704-2.21875-3.2425057c0-1.0808352 0-2.6072392 2.21875-2.6072392s2.21875 1.526404 2.21875 2.6072392c0 1.0808353-2.21875 3.2425057-2.21875 3.2425057z" fill="#fff" fill-opacity=".68627"/></svg>

<svg height="16" viewBox="0 0 16 16" width="16" xmlns="http://www.w3.org/2000/svg"><path d="M14 2.2v2.614l-2.625 1.313V3.512zM2 6.263l2.625 1.312v2.551L2 8.814zm12 0v2.55l-2.625 1.313v-2.55zM6 7.719h4v2.64H6zm-4 2.56 2.625 1.313v2.521L2 12.801zm12 0v2.522l-2.625 1.312v-2.521zm-8 1.455h4v2.641H6zm1.701-8.109H10v2.734H5.844s-.749.647-.875.641c-.13-.007-1.51-1.456-1.51-1.456L2 4.814V2.2l.068.034s.027-.457.063-.676c.034-.212.197-.592.197-.592L1.279.441A.625.625 0 0 0 .375 1v12c0 .237.134.453.346.559l4 2a.625.625 0 0 0 .279.066h6a.625.625 0 0 0 .28-.066l4-2a.625.625 0 0 0 .345-.559V1a.625.625 0 0 0-.904-.559l-3.87 1.934h-2.97s.033.417.016.625c-.03.346-.196.625-.196.625z" fill="#e0e0e0"/><path d="M5 6S2.781 3.838 2.781 2.757c0-1.08 0-2.607 2.219-2.607s2.219 1.527 2.219 2.607C7.219 3.838 5 6 5 6z" fill="#fff" fill-opacity=".686"/></svg>
